X: 21291
Q: "Slow, and with much Expression"
U: p=!crescendo(!
U: P=!crescendo)!
U: Q=!diminuendo(!
U: q=!diminuendo)!
M: 2/4
L: 1/16
K: G
[|"_P."\
~G2A2 (cB).A.G | (B2A2) (Ac).B.A |\
~G3A B2d2 | ({d}c2B2) B4 |\
({B}A2G2) A2Bd |
pe6 (fPg) |\
"_F."d3e (edcB) | (e2A2) (QAc).Bq.A |\
"_P."G3D E3D | G4 D4 |\
e3d (ed).B.G | (B2A2) (Ac).B.A |\
QG3qD {F}E3D | ("_PP."G4 D4) |]


